svg/icon/pivx.svg

<svg height="32" viewBox="0 0 32 32" width="32" xmlns="http://www.w3.org/2000/svg" xmlns:xlink="http://www.w3.org/1999/xlink"><defs><linearGradient id="a" x1="50%" x2="50%" y1="0%" y2="100%"><stop offset="0" stop-color="#fff" stop-opacity=".5"/><stop offset="1" stop-opacity=".5"/></linearGradient><circle id="b" cx="16" cy="15" r="15"/><filter id="c" height="111.7%" width="111.7%" x="-5.8%" y="-4.2%"><feOffset dy=".5" in="SourceAlpha" result="shadowOffsetOuter1"/><feGaussianBlur in="shadowOffsetOuter1" result="shadowBlurOuter1" stdDeviation=".5"/><feComposite in="shadowBlurOuter1" in2="SourceAlpha" operator="out" result="shadowBlurOuter1"/><feColorMatrix in="shadowBlurOuter1" values="0 0 0 0 0   0 0 0 0 0   0 0 0 0 0  0 0 0 0.199473505 0"/></filter><path id="d" d="m17.1534697 10.7413819v2.2549436h-7.1534697v-2.2549436zm5.8465303 1.0898932c0 3.2080989-2.2901462 5.3943102-5.5277162 5.3943102h-3.5426048v6.2744147h-2.5991448v-8.692704h5.9247592c1.9345452 0 3.0948689-1.1033253 3.0948689-2.9760209 0-1.83765762-1.1496303-2.91328889-3.0693679-2.91328889l-1.6875383-.00000242-4.5441602.01413707v-2.43212086h6.410051c3.0881587 0 5.295946 1.91167079 5.5214943 4.8312751z"/><filter id="e" height="120.6%" width="126.9%" x="-13.5%" y="-7.4%"><feOffset dy=".5" in="SourceAlpha" result="shadowOffsetOuter1"/><feGaussianBlur in="shadowOffsetOuter1" result="shadowBlurOuter1" stdDeviation=".5"/><feColorMatrix in="shadowBlurOuter1" values="0 0 0 0 0   0 0 0 0 0   0 0 0 0 0  0 0 0 0.204257246 0"/></filter></defs><g fill="none" fill-rule="nonzero"><g><use fill="#000" filter="url(#c)" xlink:href="#b"/><use fill="#5e4778" fill-rule="evenodd" xlink:href="#b"/><use fill="url(#a)" fill-rule="evenodd" xlink:href="#b"/><circle cx="16" cy="15" r="14.5" stroke="#000" stroke-opacity=".097"/></g><g><use fill="#000" filter="url(#e)" xlink:href="#d"/><use fill="#fff" fill-rule="evenodd" xlink:href="#d"/></g></g></svg>

<svg xmlns="http://www.w3.org/2000/svg" xmlns:xlink="http://www.w3.org/1999/xlink" width="32" height="32" viewBox="0 0 32 32">
  <defs>
    <linearGradient id="pivx-c" x1="50%" x2="50%" y1="0%" y2="100%">
      <stop offset="0%" stop-color="#FFF" stop-opacity=".5"/>
      <stop offset="100%" stop-opacity=".5"/>
    </linearGradient>
    <circle id="pivx-b" cx="16" cy="15" r="15"/>
    <filter id="pivx-a" width="111.7%" height="111.7%" x="-5.8%" y="-4.2%" filterUnits="objectBoundingBox">
      <feOffset dy=".5" in="SourceAlpha" result="shadowOffsetOuter1"/>
      <feGaussianBlur in="shadowOffsetOuter1" result="shadowBlurOuter1" stdDeviation=".5"/>
      <feComposite in="shadowBlurOuter1" in2="SourceAlpha" operator="out" result="shadowBlurOuter1"/>
      <feColorMatrix in="shadowBlurOuter1" values="0 0 0 0 0   0 0 0 0 0   0 0 0 0 0  0 0 0 0.199473505 0"/>
    </filter>
    <path id="pivx-e" d="M17.1534697,10.7413819 L17.1534697,12.9963255 L10,12.9963255 L10,10.7413819 L17.1534697,10.7413819 Z M23,11.8312751 C23,15.039374 20.7098538,17.2255853 17.4722838,17.2255853 L13.929679,17.2255853 L13.929679,23.5 L11.3305342,23.5 L11.3305342,14.807296 L17.2552934,14.807296 C19.1898386,14.807296 20.3501623,13.7039707 20.3501623,11.8312751 C20.3501623,9.99361748 19.200532,8.91798621 17.2807944,8.91798621 L15.5932561,8.91798379 L11.0490959,8.93212086 L11.0490959,6.5 L17.4591469,6.5 C20.5473056,6.5 22.7550929,8.41167079 22.9806412,11.3312751 L23,11.8312751 Z"/>
    <filter id="pivx-d" width="126.9%" height="120.6%" x="-13.5%" y="-7.4%" filterUnits="objectBoundingBox">
      <feOffset dy=".5" in="SourceAlpha" result="shadowOffsetOuter1"/>
      <feGaussianBlur in="shadowOffsetOuter1" result="shadowBlurOuter1" stdDeviation=".5"/>
      <feColorMatrix in="shadowBlurOuter1" values="0 0 0 0 0   0 0 0 0 0   0 0 0 0 0  0 0 0 0.204257246 0"/>
    </filter>
  </defs>
  <g fill="none" fill-rule="evenodd">
    <g fill-rule="nonzero">
      <use fill="#000" filter="url(#pivx-a)" xlink:href="#pivx-b"/>
      <use fill="#5E4778" fill-rule="evenodd" xlink:href="#pivx-b"/>
      <use fill="url(#pivx-c)" fill-rule="evenodd" style="mix-blend-mode:soft-light" xlink:href="#pivx-b"/>
      <circle cx="16" cy="15" r="14.5" stroke="#000" stroke-opacity=".097"/>
    </g>
    <g fill-rule="nonzero">
      <use fill="#000" filter="url(#pivx-d)" xlink:href="#pivx-e"/>
      <use fill="#FFF" fill-rule="evenodd" xlink:href="#pivx-e"/>
    </g>
  </g>
</svg>
